lib/brands/icons/wechat.svg

<svg xmlns="http://www.w3.org/2000/svg" fill="none" aria-hidden="true" viewBox="0 0 48 48"><g id="wechat-Icon"><g id="wechat"><path fill="#31CE6F" fill-rule="evenodd" d="M18.0118 7.50182C9.81287 7.38129 3 13.2595 3 20.1922C3 24.194 4.92913 27.6657 8.66339 30.2145C8.66339 30.2145 7.29478 34.6212 7.31425 34.7095C7.33371 34.798 7.63158 34.9717 7.73524 34.9149C7.8389 34.8582 12.6826 32.0399 12.6826 32.0399C16.1539 33.2025 18.2714 32.9164 18.6328 32.8676C18.6579 32.8642 18.6746 32.862 18.6826 32.8614C18.3121 31.8031 18.0694 30.1552 18.3458 28.6019C19.7929 20.4731 28.3232 17.9446 32.9983 18.3766C31.7073 12.506 26.0997 7.62064 18.0118 7.50182ZM12.313 14.1738C11.2375 14.1738 10.3657 15.0246 10.3657 16.0741C10.3657 17.1237 11.2375 17.9744 12.313 17.9744C13.3886 17.9744 14.2605 17.1237 14.2605 16.0741C14.2605 15.0246 13.3886 14.1738 12.313 14.1738ZM24.1024 14.1738C23.027 14.1738 22.1551 15.0246 22.1551 16.0741C22.1551 17.1237 23.027 17.9744 24.1024 17.9744C25.1779 17.9744 26.0499 17.1237 26.0499 16.0741C26.0499 15.0246 25.1781 14.1738 24.1024 14.1738Z" clip-rule="evenodd"/><path fill="#31CE6F" fill-rule="evenodd" d="M45 29.8388C45 23.8996 39.1131 19.3504 32.2836 19.3504C25.0524 19.3504 19.2849 24.0024 19.2849 29.9412C19.2849 35.8909 24.7707 40.8164 32.2919 40.8567C33.8057 40.865 36.0605 40.4853 37.5809 39.8656C37.5809 39.8656 41.2154 42.0157 41.419 41.9999C41.6224 41.9839 41.7268 41.8267 41.7348 41.6919C41.7429 41.557 40.5768 38.201 40.5768 38.201C43.6977 35.8164 45 33.1889 45 29.8388ZM27.5241 24.2783C26.5725 24.2783 25.8012 25.0321 25.8012 25.9625C25.8012 26.8924 26.5725 27.6465 27.5241 27.6465C28.4756 27.6465 29.247 26.8926 29.247 25.9625C29.247 25.0321 28.4756 24.2783 27.5241 24.2783ZM36.737 24.2783C35.7854 24.2783 35.0141 25.0321 35.0141 25.9625C35.0141 26.8924 35.7854 27.6465 36.737 27.6465C37.6887 27.6465 38.4601 26.8926 38.4601 25.9625C38.4601 25.0321 37.6887 24.2783 36.737 24.2783Z" clip-rule="evenodd"/></g></g></svg>

<svg xmlns="http://www.w3.org/2000/svg" fill="none" aria-hidden="true" viewBox="0 0 48 48"><g fill="#31CE6F" fill-rule="evenodd" clip-rule="evenodd"><path d="M18.012 7.502C9.812 7.382 3 13.259 3 20.192c0 4.002 1.93 7.474 5.663 10.023 0 0-1.368 4.406-1.349 4.494.02.089.318.263.421.206.104-.057 4.948-2.875 4.948-2.875 3.47 1.163 5.588.876 5.95.828l.05-.007c-.37-1.058-.614-2.706-.337-4.26 1.447-8.128 9.977-10.656 14.652-10.224C31.708 12.506 26.1 7.62 18.012 7.502Zm-5.699 6.672c-1.075 0-1.947.85-1.947 1.9 0 1.05.872 1.9 1.947 1.9 1.076 0 1.947-.85 1.947-1.9 0-1.05-.871-1.9-1.947-1.9Zm11.79 0c-1.076 0-1.948.85-1.948 1.9 0 1.05.872 1.9 1.947 1.9 1.076 0 1.948-.85 1.948-1.9 0-1.05-.872-1.9-1.948-1.9Z"/><path d="M45 29.839c0-5.94-5.887-10.489-12.716-10.489-7.232 0-13 4.652-13 10.591 0 5.95 5.487 10.875 13.008 10.916 1.514.008 3.768-.372 5.289-.991 0 0 3.634 2.15 3.838 2.134a.332.332 0 0 0 .316-.308c.008-.135-1.158-3.491-1.158-3.491C43.697 35.816 45 33.189 45 29.839Zm-17.476-5.56c-.951 0-1.723.753-1.723 1.683s.772 1.684 1.723 1.684c.952 0 1.723-.753 1.723-1.684 0-.93-.771-1.684-1.723-1.684Zm9.213 0c-.952 0-1.723.753-1.723 1.683s.771 1.684 1.723 1.684c.952 0 1.723-.753 1.723-1.684 0-.93-.771-1.684-1.723-1.684Z"/></g></svg>
